Adwaita++/apps/scalable/google.svg

<svg height="128" width="128" xmlns="http://www.w3.org/2000/svg" xmlns:xlink="http://www.w3.org/1999/xlink">
  <linearGradient id="e" gradientTransform="matrix(1.0015 0 0 .99993 72.09 56.015)" gradientUnits="userSpaceOnUse" x1="43.844" x2="-60" y1="234" y2="234">
    <stop offset="0" stop-color="#d5d3cf"/>
    <stop offset=".038" stop-color="#e3e2df"/>
    <stop offset=".077" stop-color="#c0bfbc"/>
    <stop offset=".923" stop-color="#c0bfbc"/>
    <stop offset=".962" stop-color="#e3e2df"/>
    <stop offset="1" stop-color="#d5d3cf"/>
  </linearGradient>
  <g transform="translate(0 -172)">
    <g>
      <rect fill="url(#e)" height="48" rx="8" width="104" x="12" y="240"/>
      <path d="m20 10c-4.432 0-8 3.568-8 8v42 42c0 4.432 3.568 8 8 8h44 44c4.432 0 8-3.568 8-8v-42-42c0-4.432-3.568-8-8-8z" fill="#f6f5f4" transform="translate(0 172)"/>
      <g enable-background="new" transform="matrix(.28822009 0 0 .28822009 -.802775 169.39356)">
        <path d="m224.62877 43.933713h-116.24712l.33941 28.637495h115.36711z" fill="#4fbab5"/>
        <path d="m340.14674 43.933713h-102.39349-12.87305-.50286l-.28913 28.637495h115.37969z" fill="#ed4154"/>
      </g>
      <path clip-rule="evenodd" d="m71.210426 62.665906c-.423969-.393872-.745871-.684369-1.058613-.984026-10.137296-9.738189-20.262815-19.488156-30.414505-29.210642-4.650568-4.452977-11.787371-4.289409-16.218103.314051-4.363997 4.534106-4.303804 11.715399.285263 16.150057 13.1548 12.708587 26.347547 25.379225 39.562541 38.02631 4.403252 4.213514 11.182823 4.170332 15.648886.01047 1.78878-1.665777 3.533072-3.378662 5.295682-5.073228 11.29928-10.859612 22.592023-21.727076 33.903083-32.573603 2.71785-2.606621 4.14155-5.75498 3.78432-9.503961-.45407-4.767026-2.96778-8.198031-7.48095-9.841563-4.49878-1.638298-8.5906-.649038-12.06217 2.666814-5.6817 5.426534-11.337233 10.883165-17.003233 16.32802-4.714687 4.53149-9.431991 9.066906-14.242201 13.691303zm-.02879-76.471352c22.766061 0 45.532124-.0065 68.298184.0039 7.05437.0039 13.11817 4.5550441 14.87554 11.168429.27741 1.044219.45145 2.149939.45276 3.22818.0105 17.788358.0981 35.578023-.0628 53.36507-.16357 18.173069-5.66077 34.62671-16.84752 48.993227-12.44819 15.98913-28.50273 26.51899-48.289233 31.09236-45.432675 10.49845-88.833177-18.82473-99.546234-59.865929-1.427622-5.471026-2.401179-11.023181-2.448287-16.673477-.157025-18.922865-.274794-37.845728-.266943-56.767286.0039-7.965112 7.109324-14.534006 15.4054977-14.540549 22.8092423-.01439 45.6197943-.0039 68.4290383-.0039z" fill="#f43b53" fill-rule="evenodd" transform="matrix(.41792396 0 0 .41792396 36.32997571833 207.16368915057)"/>
      <path d="m20 10c-4.432 0-8 3.568-8 8v42 42c0 4.432 3.568 8 8 8h44 44c4.432 0 8-3.568 8-8v-42-42c0-4.432-3.568-8-8-8z" fill="#f6f5f4" transform="translate(0 172)"/>
    </g>
    <g>
      <rect fill="url(#e)" height="48" rx="8" width="104" x="12" y="240"/>
      <path d="m20 10c-4.432 0-8 3.568-8 8v42 42c0 4.432 3.568 8 8 8h44 44c4.432 0 8-3.568 8-8v-42-42c0-4.432-3.568-8-8-8z" fill="#f6f5f4" transform="translate(0 172)"/>
      <g enable-background="new" transform="matrix(.50548408853 0 0 .50548408853 -1.81233872644 166.7128001362)">
        <path d="m201.01081 115.66968h-69.128v28.662h39.791c-3.71 18.21-19.221 28.663-39.791 28.663-24.279 0-43.836997-19.558-43.836997-43.837s19.557997-43.837003 43.836997-43.837003c10.454 0 19.895 3.709 27.314 9.779l21.581-21.581c-13.151-11.466001-30.011-18.547001-48.895-18.547001a73.973 73.973 0 0 0 -74.185996 74.186004 73.972 73.972 0 0 0 74.185996 74.186c37.093 0 70.814-26.977 70.814-74.186 0-4.384-.674-9.105-1.686-13.488z" fill="#ea4335"/>
        <path d="m201.01081 115.66968h-69.128v28.662h39.791c-3.71 18.21-19.221 28.663-39.791 28.663-24.279 0-43.836997-19.558-43.836997-43.837 0-4.81.767-9.434 2.187-13.758-13.411-10.178-9.786-7.553-24.932999-19.127003-4.871 9.897003-7.603 21.056003-7.603 32.885003a73.972 73.972 0 0 0 74.185996 74.186c37.093 0 70.814-26.977 70.814-74.186 0-4.384-.674-9.105-1.686-13.488z" fill="#fbbc05"/>
        <path d="m201.01081 115.66968h-69.128v28.662h39.791c-3.71 18.21-19.221 28.663-39.791 28.663-19.548 0-36.035997-12.679-41.718997-30.292-8.717 6.644-16.217 12.519-25.007999 19.046 12.011999 24.685 37.298996 41.595 66.726996 41.595 37.093 0 70.814-26.977 70.814-74.186 0-4.384-.674-9.105-1.686-13.488z" fill="#34a853"/>
        <path d="m201.01081 115.66968h-69.128v28.662h39.791c-2.026 9.943-7.57 17.574-15.535 22.453 5.308 4.312 18.995 15 23.617 18.526 13.886-12.659 22.941-31.69 22.941-56.153 0-4.384-.674-9.105-1.686-13.488z" fill="#4285f4"/>
      </g>
    </g>
  </g>
</svg>

<svg xmlns="http://www.w3.org/2000/svg" xmlns:xlink="http://www.w3.org/1999/xlink" width="128" height="128" version="1.0">
 <defs>
  <linearGradient id="a">
   <stop id="stop2" offset="0" stop-color="#68676b"/>
   <stop id="stop4" offset=".8" stop-color="#424048"/>
   <stop id="stop6" offset="1" stop-color="#241f31"/>
  </linearGradient>
  <radialGradient id="d" cx="279.422" cy="446.483" r="224" fx="279.422" fy="446.483" gradientTransform="matrix(1.34416 .0006 -.00062 1.38763 -121.22 -718.103)" gradientUnits="userSpaceOnUse" xlink:href="#a"/>
  <linearGradient id="e" x1="43.844" x2="-60" y1="234" y2="234" gradientTransform="matrix(1.0015 0 0 .99993 72.09 56.015)" gradientUnits="userSpaceOnUse" xlink:href="#b"/>
  <linearGradient id="b">
   <stop id="stop11" offset="0" stop-color="#d5d3cf"/>
   <stop id="stop13" offset=".038" stop-color="#e3e2df"/>
   <stop id="stop15" offset=".077" stop-color="#c0bfbc"/>
   <stop id="stop17" offset=".923" stop-color="#c0bfbc"/>
   <stop id="stop19" offset=".962" stop-color="#e3e2df"/>
   <stop id="stop21" offset="1" stop-color="#d5d3cf"/>
  </linearGradient>
 </defs>
 <g transform="translate(0 -172)">
  <rect fill="url(#e)" width="104" height="48" x="12" y="240" rx="8" ry="8"/>
  <path style="fill:#f6f5f4" d="M 20 10 C 15.568 10 12 13.568 12 18 L 12 60 L 12 102 C 12 106.432 15.568 110 20 110 L 64 110 L 108 110 C 112.432 110 116 106.432 116 102 L 116 60 L 116 18 C 116 13.568 112.432 10 108 10 L 20 10 z" transform="translate(0,172)"/>
  <g style="enable-background:new" transform="matrix(0.28822009,0,0,0.28822009,-0.80277503,169.39356)">
   <path style="fill:#4fbab5" d="M 224.62877,43.933713 H 108.38165 l 0.33941,28.637495 h 115.36711 z"/>
   <path style="fill:#ed4154" d="M 340.14674,43.933713 H 237.75325 224.8802 224.37734 l -0.28913,28.637495 H 339.4679 Z"/>
  </g>
  <g style="enable-background:new" transform="matrix(0.41792396,0,0,0.41792396,10.871879,182.86569)">
   <g transform="translate(60.915619,58.139761)">
    <path style="clip-rule:evenodd;fill:#f43b53;fill-rule:evenodd" d="M 71.210426,62.665906 C 70.786457,62.272034 70.464555,61.981537 70.151813,61.68188 60.014517,51.943691 49.888998,42.193724 39.737308,32.471238 35.08674,28.018261 27.949937,28.181829 23.519205,32.785289 c -4.363997,4.534106 -4.303804,11.715399 0.285263,16.150057 13.1548,12.708587 26.347547,25.379225 39.562541,38.02631 4.403252,4.213514 11.182823,4.170332 15.648886,0.01047 1.78878,-1.665777 3.533072,-3.378662 5.295682,-5.073228 11.29928,-10.859612 22.592023,-21.727076 33.903083,-32.573603 2.71785,-2.606621 4.14155,-5.75498 3.78432,-9.503961 -0.45407,-4.767026 -2.96778,-8.198031 -7.48095,-9.841563 -4.49878,-1.638298 -8.5906,-0.649038 -12.06217,2.666814 -5.6817,5.426534 -11.337233,10.883165 -17.003233,16.32802 -4.714687,4.53149 -9.431991,9.066906 -14.242201,13.691303 z m -0.02879,-76.471352 c 22.766061,0 45.532124,-0.0065 68.298184,0.0039 7.05437,0.0039 13.11817,4.5550441 14.87554,11.168429 0.27741,1.044219 0.45145,2.149939 0.45276,3.22818 0.0105,17.788358 0.0981,35.578023 -0.0628,53.36507 -0.16357,18.173069 -5.66077,34.62671 -16.84752,48.993227 -12.44819,15.98913 -28.50273,26.51899 -48.289233,31.09236 C 44.175892,144.54417 0.77539,115.22099 -9.937667,74.179791 -11.365289,68.708765 -12.338846,63.15661 -12.385954,57.506314 -12.542979,38.583449 -12.660748,19.660586 -12.652897,0.739028 c 0.0039,-7.965112 7.109324,-14.534006 15.4054977,-14.540549 22.8092423,-0.01439 45.6197943,-0.0039 68.4290383,-0.0039 z"/>
   </g>
  </g>
  <path d="M 20 10 C 15.568 10 12 13.568 12 18 L 12 60 L 12 102 C 12 106.432 15.568 110 20 110 L 64 110 L 108 110 C 112.432 110 116 106.432 116 102 L 116 60 L 116 18 C 116 13.568 112.432 10 108 10 L 20 10 z" transform="translate(0,172)" style="fill:#f6f5f4"/>
 </g>
 <g transform="translate(0 -172)">
  <rect fill="url(#e)" width="104" height="48" x="12" y="240" rx="8" ry="8"/>
  <path d="M 20 10 C 15.568 10 12 13.568 12 18 L 12 60 L 12 102 C 12 106.432 15.568 110 20 110 L 64 110 L 108 110 C 112.432 110 116 106.432 116 102 L 116 60 L 116 18 C 116 13.568 112.432 10 108 10 L 20 10 z" transform="translate(0,172)" style="fill:#f6f5f4"/>
  <g transform="matrix(7.086963,0,0,7.086963,-440.75911,-1580.7775)">
   <g style="enable-background:new" transform="matrix(0.12974173,0,0,0.12974173,3.8344818,227.85345)">
    <g transform="matrix(0.54975304,0,0,0.54975304,447.83383,144.32296)">
     <path style="isolation:isolate;fill:#ea4335" d="m 201.01081,115.66968 h -69.128 v 28.662 h 39.791 c -3.71,18.21 -19.221,28.663 -39.791,28.663 -24.279,0 -43.836997,-19.558 -43.836997,-43.837 0,-24.279 19.557997,-43.837003 43.836997,-43.837003 10.454,0 19.895,3.709 27.314,9.779 l 21.581,-21.581 c -13.151,-11.466001 -30.011,-18.547001 -48.895,-18.547001 a 73.973,73.973 0 0 0 -74.185996,74.186004 73.972,73.972 0 0 0 74.185996,74.186 c 37.093,0 70.814,-26.977 70.814,-74.186 0,-4.384 -0.674,-9.105 -1.686,-13.488 z"/>
     <path style="isolation:isolate;fill:#fbbc05" d="m 201.01081,115.66968 h -69.128 v 28.662 h 39.791 c -3.71,18.21 -19.221,28.663 -39.791,28.663 -24.279,0 -43.836997,-19.558 -43.836997,-43.837 0,-4.81 0.767,-9.434 2.187,-13.758 -13.411,-10.178 -9.786,-7.553 -24.932999,-19.127003 -4.871,9.897003 -7.603,21.056003 -7.603,32.885003 a 73.972,73.972 0 0 0 74.185996,74.186 c 37.093,0 70.814,-26.977 70.814,-74.186 0,-4.384 -0.674,-9.105 -1.686,-13.488 z"/>
     <path style="isolation:isolate;fill:#34a853" d="m 201.01081,115.66968 h -69.128 v 28.662 h 39.791 c -3.71,18.21 -19.221,28.663 -39.791,28.663 -19.548,0 -36.035997,-12.679 -41.718997,-30.292 -8.717,6.644 -16.217,12.519 -25.007999,19.046 12.011999,24.685 37.298996,41.595 66.726996,41.595 37.093,0 70.814,-26.977 70.814,-74.186 0,-4.384 -0.674,-9.105 -1.686,-13.488 z"/>
     <path style="isolation:isolate;fill:#4285f4" d="m 201.01081,115.66968 h -69.128 v 28.662 h 39.791 c -2.026,9.943 -7.57,17.574 -15.535,22.453 5.308,4.312 18.995,15 23.617,18.526 13.886,-12.659 22.941,-31.69 22.941,-56.153 0,-4.384 -0.674,-9.105 -1.686,-13.488 z"/>
    </g>
   </g>
  </g>
 </g>
</svg>
